X:1
T:Lamentation over Boston
T:Lamentation over Boston
T:Bass
T:William Billings
C:William Billings
L:1/8
M:3/2
K:C
V:1 bass transpose=-24 
V:1
 A8 A4 | A4 e4 [Aa]4 | e2 e2 e4 c4 | A4 d4 e4 |[M:2/2] A8 | z4 A4 | e8 | z4 [Aa]4 | [Ee]8 | %9
w: By the|Ri- vers of|Wa- ter- town we|sat down and|wept,|we|wept,|we|wept|
 z4 [cc']4 | [Gg]8 | z4 [Aa]4 | e2 f2 d2 c2 | A2 B2 c2 A2 | e4 e4 | z4 [Aa]4 | e2 e2 [Aa]2 [Aa]2 | %17
w: we|wept|when|we re- mem- ber'd|thee * * O|Bos- ton,|when|we re- mem- ber'd|
 d4 e4 | [Aa]4 [Aa]4 | [Ae]4 [Ae]2 [Ae]2 | [Aa]8 | [cc']4 [Gg]2 [Aa]2 | e4 e2 e2 | %23
w: thee, O|Bos- ton|As for our|Friends,|Lord God of|Heav- en, pre-|
 [Aa]4 [Aa]2 [Aa]2 | [Gg]4 [Gg]2 [Ge]2 | [Af]2 [Ad]2 e2 e2 | A2 B2 c2 d2 | e4 e2 e2 | c4 c2 c2 | %29
w: serve them de-|fend them, de-|liv- er and re-|store * them un-|to us, pre|serve them, de-|
 [Gg]4 [Gg]2 [Gg]2 | [cc']2 [Bb]2 [Aa]2 [^G^g]2 | [Aa]4 e2 e2 | [Aa]4 d4 | e4 A4- | A8 | z4 e4 | %36
w: fend them, de-|liv- er and re-|store them un-|to us|a- gain.||For|
 [Aa]2 [^G^g]2 [Aa]2 [Bb]2 | [cc']2 [Bb]2 [Aa]2 [^G^g]2 | [Aa]4 e2 e2 | f2 e2 d2 cd | e6 e2 | %41
w: they * that *|held * them in|Bond- age re-|quir'd * * of *|them to|
 a2 g2 f4 | e2 d2 c2 d2 | e6 e2 | A4 A4 | A4 [Aa]2 [Aa]2 | [Aa]8 | [Aa]4 e4 |[M:3/2] A8 z4 | %49
w: take * up|Arms * a- *|gainst their|Breth- ren|For- bid it,|Lord|God, for-|bid,|
[M:2/2] c4 [cc']2 [cc']2 | [cc']8 | [cc']4 [Gg]4 | c6 e2 | a2 e2 a2 ^g2 | e2 a4 b2 | %55
w: For- bid it,|Lord|God, for-|bid that|those * who have|suck- ed Bos-|
 (3c'2 b2 a2 g2 f2 | e6 e2 | a2 ^g2 a2 e2 | f2 d2 e4 | A8 | z4 A4 | A2 A2 e2 e2 | f2 d2 d2 e2 | %63
w: ton- * * i- an|Breasts should|thirst * for A-|mer- i- can|Blood.|A|voice was heard in|Rox- bur- y which|
 c2 c2 g2 a2 | e2 e2 e4 | a3 b g3 b | a2 gf e4 | e3 f d3 e | c4 e4 | f4 d2 d2 | e4 e2 e2 | %71
w: ec- cho'd thro' the|Con- ti- nent|weep- * * *|* * * ing,|weep- * * *|* ing,|Weep- ing for|Bos- ton be-|
 A3 B c2 d2 | e4 e4 | c4 c4 | g4 e2 e2 | [Aa]4 [Aa]4 | [cc']4 | [Gg]4 | [Aa]4 e2 e2 | %79
w: cause * of their|Dan- ger,|weep- ing|weep- ing for|Bos- ton|weep-|ing|weep- ing for|
 [Aa]4 [Aa]2 [Aa]2 | d4 e2 [Ee]2 | A4 A4 | z4 A4 | A2 e2 a2 ef | g6 g2 | [cc']2 [Bb]2 [Aa]2 [Bb]2 | %86
w: Bos- ton be-|cause of their|Dan- ger.|Is|Bos- ton my dear *|Town, is|it my na- tive|
 e6 e2 | a2 e2 a2 g2 | c'3 b a2 ga | b2 g2 e2 c2 | c4 e2 g2 | c6 z2 | z8 | z4 z2 cd | e2 c2 A2 B2 | %95
w: Place? for|since * their Ca-|lam- i- ty I do|ear- nest- ly re-|mem- ber it|still!||I do|ear- nest- ly re-|
 c2 d2 e2 e2 | A8 |: z4 A4 | c2 c2 c2 cc | g2 g2 g2 e2 | A3 B c2 d2 | ed cB A2 A2 | e8 | z4 [Aa]4 | %104
w: mem- * ber it|still.|If|I for- get thee, if|I for- get thee,|yea, if I do|not * re- * mem- ber|thee,|Then|
 e2 e2 a2 A2 | e2 a2 e2 [Aa][Bb] | [cc']2 [Gg]2 [Aa]2 [Gg]2 | c8 | z4 [Aa]4 | e2 e2 [Aa]2 [Aa]2 | %110
w: let my num- bers|cease to flow, Then *|be my Muse un-|kind,|Then|let my Tongue for-|
 [^G^g]2 [Aa]2 e4- | e4 [Aa]4 | [Aa]2 [Aa]2 d2 e2 | A8 | z4 A4 | A2 e2 a2 g2 | e2 c2 A2 e2 | %117
w: get to move|* and|ev- er be con-|fin'd;|Let|hor- rid Jar- gon|split the Air and|
 [Aa]2 [Bb]2 [cc']2 [Bb]2 | [Aa]2 e6 | z4 [Aa]4 | e2 e2 f2 e2 | c2 e2 a2 g2 | %122
w: rive my nerves a-|sun- der.|Let|hate- ful dis- cord|greet my ear as|
 [cc']2 [Bb]2 [Aa]2 [Gg]2 | [Aa]2 A6 | z4 A4 | A2 B2 c2 ed | c2 A2 e2 a2 | e2 f2 d2 [Gg]2 | c8 | %129
w: ter- ri- ble as|Thun- der.|Let|har- mo- ny be *|ban- ish'd hence and|Con- so- nance de-|part;|
 z4 [Aa]4 | e2 f2 d2 d2 | g2 e2 c2 d2 | c2 d2 e2 [Ee]2 | A8 :| %134
w: Let|dis- so- nance e-|rect her throne and|reign with- in my|Heart.|

